Catalina-light/apps/64/system-switch-user.svg

<?xml version="1.0" encoding="UTF-8" standalone="no"?>
<!-- Created with Inkscape (http://www.inkscape.org/) -->

<svg
   xmlns:dc="http://purl.org/dc/elements/1.1/"
   xmlns:cc="http://creativecommons.org/ns#"
   xmlns:rdf="http://www.w3.org/1999/02/22-rdf-syntax-ns#"
   xmlns:svg="http://www.w3.org/2000/svg"
   xmlns="http://www.w3.org/2000/svg"
   xmlns:sodipodi="http://sodipodi.sourceforge.net/DTD/sodipodi-0.dtd"
   xmlns:inkscape="http://www.inkscape.org/namespaces/inkscape"
   width="64"
   height="64"
   viewBox="0 0 16.933333 16.933334"
   version="1.1"
   id="svg8"
   inkscape:version="0.92.4 (5da689c313, 2019-01-14)"
   sodipodi:docname="system-switch-user.svg">
  <defs
     id="defs2" />
  <sodipodi:namedview
     id="base"
     pagecolor="#ffffff"
     bordercolor="#666666"
     borderopacity="1.0"
     inkscape:pageopacity="0.0"
     inkscape:pageshadow="2"
     inkscape:zoom="7.9195959"
     inkscape:cx="38.533386"
     inkscape:cy="29.497156"
     inkscape:document-units="mm"
     inkscape:current-layer="layer1"
     showgrid="false"
     units="px"
     inkscape:window-width="1920"
     inkscape:window-height="1023"
     inkscape:window-x="0"
     inkscape:window-y="29"
     inkscape:window-maximized="1" />
  <metadata
     id="metadata5">
    <rdf:RDF>
      <cc:Work
         rdf:about="">
        <dc:format>image/svg+xml</dc:format>
        <dc:type
           rdf:resource="http://purl.org/dc/dcmitype/StillImage" />
        <dc:title></dc:title>
      </cc:Work>
    </rdf:RDF>
  </metadata>
  <g
     inkscape:label="Capa 1"
     inkscape:groupmode="layer"
     id="layer1"
     transform="translate(0,-280.06665)">
    <path
       style="opacity:1;fill:#25282d;fill-opacity:0.61139891;stroke-width:1.07655489"
       d="M 32.099609 2.2148438 C 15.45721 2.2143902 1.9654594 15.705263 1.9648438 32.347656 C 1.9643741 48.990806 15.456443 62.482875 32.099609 62.482422 C 48.742014 62.481817 62.232891 48.99005 62.232422 32.347656 C 62.231806 15.706018 48.741247 2.2154484 32.099609 2.2148438 z M 32.097656 18.017578 A 8.6079991 8.6079991 0 0 1 40.707031 26.625 A 8.6079991 8.6079991 0 0 1 38.113281 32.78125 C 43.483688 35.108381 47.242188 40.45405 47.242188 46.679688 L 16.955078 46.679688 C 16.955077 40.451744 20.718229 35.105067 26.091797 32.779297 A 8.6079991 8.6079991 0 0 1 23.490234 26.625 A 8.6079991 8.6079991 0 0 1 32.097656 18.017578 z "
       transform="matrix(0.26458333,0,0,0.26458333,0,280.06665)"
       id="path815" />
    <g
       id="g824"
       transform="translate(0.25985811,-0.31496282)" />
  </g>
</svg>

<svg width="64" height="64" version="1.1" viewBox="0 0 16.933 16.933" xmlns="http://www.w3.org/2000/svg">
<g transform="translate(0 -280.07)">
<path transform="matrix(.26458 0 0 .26458 0 280.07)" d="m32.1 2.2148c-16.642-4.536e-4 -30.134 13.49-30.135 30.133-4.697e-4 16.643 13.492 30.135 30.135 30.135 16.642-6.05e-4 30.133-13.492 30.133-30.135-6.16e-4 -16.642-13.491-30.132-30.133-30.133zm-0.001953 15.803a8.608 8.608 0 0 1 8.6094 8.6074 8.608 8.608 0 0 1-2.5938 6.1562c5.3704 2.3271 9.1289 7.6728 9.1289 13.898h-30.287c-1e-6 -6.2279 3.7632-11.575 9.1367-13.9a8.608 8.608 0 0 1-2.6016-6.1543 8.608 8.608 0 0 1 8.6074-8.6074z" fill="#25282d" fill-opacity=".6114" stroke-width="1.0766"/>
</g>
</svg>
